X: 1
T: Inver Lasses
O: Trad.
R: reel
Z: 2014 John Chambers <jc:trillian.mit.edu>
S: BSFC Tune Book XIII-18
M: 4/4
L: 1/8
K: A
f | "A"e2cA "D"d2df | "A"e2cA "E7"dBBf | "A"e2cA "D"d2fd | "E7"edcB "A"cAA :|
g | "A"a2ec "D"d2fd | "A"a2ec "E7"dBBg | "A"a2ec "D"d2fd | "E7"edcB "A"cAA |]
g | "A"a2ec "D"d2fd | "A"a2ec "E7"fBBg | "A"afec "D"defa | "E7"edcB "A"cAA  :|
